X: 369
%
U:~=!turn!
T: Marmeel Rant
C:
O:Scotland
B:Keith Norman MacDonald : "The Skye collection of the best reels & strathspeys extant" : 1887
Z:Ralph Palmer
R:Strathspey
M:C
L:1/8
K:E aeolian
B | G<EE>e G<EE>G | F<DD>d F<DD>F | G<EE>e G<EE>g | g<da>f e/e/e e :|
f | g>be>b g<ee>g | f>da>d f<dd>f | g>be>b g<ee>g | f>da>f e/e/e ef |
g>be>b g<ee>g | f>da>d f<dd>f | g<ba>f g>ef>d | e>B{/^c}d>F {/F}E/E/E E |]


